packages/foundations/assets/icons/functional/images/arrows/chevron_left_24.svg

<svg width="24" height="24" viewBox="0 0 24 24" fill="none" xmlns="http://www.w3.org/2000/svg">
<g clip-path="url(#clip0_77_501)">
<path fill-rule="evenodd" clip-rule="evenodd" d="M15.9998 18C15.9998 18.563 15.5618 19 14.9998 19C14.7498 19 14.4998 18.875 14.3118 18.687L8.28183 12.719C8.09938 12.5242 7.99847 12.2669 7.99983 12C7.99983 11.75 8.09383 11.469 8.28083 11.281L14.3128 5.312C14.4998 5.125 14.7498 5 14.9998 5C15.5628 5 15.9998 5.438 15.9998 6C15.9998 6.281 15.9058 6.5 15.7188 6.719L10.4378 12L15.7178 17.281C15.8106 17.3758 15.8834 17.4884 15.9318 17.6119C15.9803 17.7354 16.0034 17.8674 15.9998 18Z" fill="#1A1C1F"/>
</g>
<defs>
<clipPath id="clip0_77_501">
<rect width="24" height="24" fill="white"/>
</clipPath>
</defs>
</svg>

<svg xmlns="http://www.w3.org/2000/svg" width="24" height="24" fill="none"><g clip-path="url(#a)"><path fill="#1A1C1F" fill-rule="evenodd" d="M16 18c0 .563-.438 1-1 1-.25 0-.5-.125-.688-.313l-6.03-5.968A1.04 1.04 0 0 1 8 12c0-.25.094-.531.28-.719l6.033-5.969C14.5 5.125 14.75 5 15 5c.563 0 1 .438 1 1 0 .281-.094.5-.281.719L10.438 12l5.28 5.281A1 1 0 0 1 16 18" clip-rule="evenodd"/></g><defs><clipPath id="a"><path fill="#fff" d="M0 0h24v24H0z"/></clipPath></defs></svg>
